!!!OTL: Dongfang de taiyang weiwei xiao
!!!ARE: Asia, China,ÿQinghai Yushu
!! I, 222
!!!SCT: C1854
!!!YEM: Copyright 1995, estate of Helmut Schaffrath.
**kern
*ICvox
*Ivox
*M2/4
*k[f#c#]
*D:
{8ee
8ee
8ee
8dd
=1
8dd
8b
4ee
=2
8dd
8ee
[4dd
=3
2dd]}
=4
{8a
16b
16dd
4ee
=5
8ee
16dd
16ee
8dd
8b
=6
8ee
16ee
16dd
8b
16b
16a
=7
[2b
=8
2b]}
=9
{8a
8a
16b
16dd
8ee
=10
8ee
8b
8dd
16dd
16b
=11
8a
8a
8b
8ee
=12
4dd
8ee
16dd
16b
=13
8.dd
16ee
8b
16b
16a
=14
[2b
=15
2b]}
=16
{8a
8a
8b
8dd
=17
8ee
8b
8dd
16dd
16b
=18
4a
8b
8ee
=19
4dd
16ee
16dd
8b
=20
8.dd
16ee
8b
16b
16a
=21
[2b
=22
2b]}
==
!!!AGN: Shange
!! Zang
!!!ONB: ESAC (Essen Associative Code) Database: SENGANSU
!!!AMT: simple duple
!!!AIN: vox
!!!EED: Helmut Schaffrath
!!!EEV: 1.0
*-
!!!ONB: Tied note syntax fixed by Craig Sapp, 2004/05/03/
